src/24/archive-24.svg

<?xml version="1.0" encoding="iso-8859-1"?>
<!-- Generator: Adobe Illustrator 19.1.0, SVG Export Plug-In . SVG Version: 6.00 Build 0)  -->
<!DOCTYPE svg PUBLIC "-//W3C//DTD SVG 1.1 Tiny//EN" "http://www.w3.org/Graphics/SVG/1.1/DTD/svg11-tiny.dtd">
<svg version="1.1" baseProfile="tiny" id="Layer_1" xmlns="http://www.w3.org/2000/svg" xmlns:xlink="http://www.w3.org/1999/xlink"
	 x="0px" y="0px" viewBox="0 0 24 24" xml:space="preserve">
<g>
	<path d="M23.5,9h-23C0.224,9,0,8.776,0,8.5v-5C0,3.224,0.224,3,0.5,3h23C23.776,3,24,3.224,24,3.5v5C24,8.776,23.776,9,23.5,9z
		 M1,8h22V4H1V8z"/>
	<path d="M22.5,22h-21C1.224,22,1,21.776,1,21.5v-13C1,8.224,1.224,8,1.5,8h21C22.776,8,23,8.224,23,8.5v13
		C23,21.776,22.776,22,22.5,22z M2,21h20V9H2V21z"/>
	<path d="M15.5,14h-7C8.224,14,8,13.776,8,13.5v-2C8,11.224,8.224,11,8.5,11h7c0.276,0,0.5,0.224,0.5,0.5v2
		C16,13.776,15.776,14,15.5,14z M9,13h6v-1H9V13z"/>
</g>
</svg>

<svg baseProfile="tiny" xmlns="http://www.w3.org/2000/svg" viewBox="0 0 24 24"><path d="M23.5 9H.5a.5.5 0 0 1-.5-.5v-5A.5.5 0 0 1 .5 3h23a.5.5 0 0 1 .5.5v5a.5.5 0 0 1-.5.5zM1 8h22V4H1v4z"/><path d="M22.5 22h-21a.5.5 0 0 1-.5-.5v-13a.5.5 0 0 1 .5-.5h21a.5.5 0 0 1 .5.5v13a.5.5 0 0 1-.5.5zM2 21h20V9H2v12z"/><path d="M15.5 14h-7a.5.5 0 0 1-.5-.5v-2a.5.5 0 0 1 .5-.5h7a.5.5 0 0 1 .5.5v2a.5.5 0 0 1-.5.5zM9 13h6v-1H9v1z"/></svg>
